X:1
T:Title
%%score { ( 1 2 ) | ( 3 4 ) }
L:1/8
M:6/8
K:Ab
V:1 treble nm="Piano" snm="Pno."
V:2 treble 
V:3 bass 
V:4 bass 
V:1
"_cresc." g2 e!f! (agf- | fe).d (cd).B |!ff! TB3{=AB}!ff! d"_dim."BG | DB,G, z z2 | z2 z x2 x | %5
 DGB!p! [DGBd]3- | [DGBd]3 |[M:12/16]"^L'istesso tempo di Arioso" [=DGB=d]/B/G/ =D/B,/G,/ | %8
 z3/2 z/"^cresc." =D/D/ D/[B,D]/[B,D]/"^dim." [B,D]/[B,D]/[B,D]/ || %9
[K:Bb]!p!{D} (d3/2- dc/) (c/B/) z/4 A/4 (A/B/) z/4 G/4 | %10
!<(! (G^F/- Fe/) z/ (e/=f/4e/4)!<)!"_dim." z/ (d/e/4d/4) || %11
V:2
 AGc- ced- | dc[GB] A[FA][FA] | G3 [GB] x2 | x6 | x6 | x6 | x3 |[M:12/16] x3 | x6 ||[K:Bb] x6 | %10
 x6 || %11
V:3
 [E,E]2 [C,C] [F,F]2 [G,G] | [A,A]2 [=E,=E] [F,F][D,D][=D,=D] | [E,E]3 [E,,E,]2 z | z2 z D,B,,G,, | %4
 E,,G,,B,, D,G,B, | z2 z [E,,E,]3- | [E,,E,]3 |[M:12/16] [=D,,=D,]3/2 z3/2 | %8
 x/ x/ x/ x/ [=D,G,]/[D,G,]/[D,G,]/[D,G,]/[D,G,]/[D,G,]/[D,G,]/[D,G,]/ || %9
[K:Bb] [G,,B,,D,]/[G,,B,,D,]/[G,,B,,D,]/ [G,,B,,D,]/[G,,B,,D,]/[G,,B,,D,]/ [G,,B,,D,]/[G,,B,,D,]/[G,,B,,D,]/ [G,,B,,D,]/[G,,B,,D,]/[G,,B,,D,]/ | %10
 [A,,C,D,]/[A,,C,D,^F,]/[A,,C,D,F,]/ [A,,C,D,F,]/[A,,C,D,F,]/[A,,C,D,F,]/ [A,,C,D,F,]/[A,,C,D,F,]/[A,,C,D,F,]/ [A,,C,D,F,]/[A,,C,D,F,]/[A,,C,D,F,]/ || %11
V:4
 x6 | x6 | x6 | x6 | x2 x z2 z | x6 | x3 |[M:12/16] x3 | %8
 =D,/B,,/G,,/=D,,/[B,,,D,,B,,]/[B,,,D,,B,,]/[B,,,D,,B,,]/[G,,,D,,G,,]/[G,,B,,]/[G,,B,,]/[G,,B,,]/[G,,B,,]/ || %9
[K:Bb] x6 | x6 || %11

